X: 3120
Q:"Reel."
M: C
L: 1/8
K: C
uA |\
f |\
ecgc egca | gcec Bddf |\
ecgc egca | gede c/c/c (cf) |\
ecgc egca | gcec Bddf |\
ecGc Acfa | gede c/c/c c |]


